img/smiley-face.svg

<svg width="77" height="56" viewBox="0 0 77 56" fill="none" xmlns="http://www.w3.org/2000/svg">
<path d="M16.6898 2.60172C17.731 2.08787 19.0176 2.03351 19.9477 2.21402C19.9799 2.21966 20.0123 2.22561 20.0443 2.2316C20.3146 2.28324 20.7315 2.31533 21.3275 2.48551C21.6332 2.58066 21.9991 2.69455 22.518 3.0402C23.0017 3.35338 23.8449 4.17126 24.0482 5.38688C24.0551 5.42573 24.0612 5.46509 24.0668 5.50406C24.2761 7.02514 24.2289 8.4099 23.8256 9.96207C23.4281 11.4374 22.4737 13.455 20.2621 14.4904C20.2518 14.4951 20.2412 14.5003 20.2309 14.505C18.6055 15.2379 16.4543 15.498 14.3998 14.3615C14.3963 14.3595 14.3926 14.3576 14.3891 14.3556C13.46 13.9476 12.2711 12.2439 12.1664 11.1554C12.1658 11.1526 12.165 11.1495 12.1645 11.1466C12.0296 10.3464 11.9466 9.51501 12.0121 8.50602C12.1122 7.56247 12.22 6.02182 13.8022 4.72281C13.8055 4.72025 13.8096 4.71755 13.8129 4.715C13.8337 4.69902 13.8547 4.68282 13.8754 4.66715C14.1673 4.44698 14.4798 4.23158 14.8627 4.01871C15.3031 3.50392 15.8686 3.02403 16.6068 2.64176C16.6343 2.62809 16.6621 2.6149 16.6898 2.60172Z" fill="#FCB414"/>
<path d="M53.0568 0.247967C54.3547 -0.15301 55.6608 0.193005 56.5031 0.595623C57.6078 0.958036 58.9914 1.68259 59.759 3.30754C59.7711 3.33394 59.7825 3.36092 59.7941 3.38762C59.8986 3.63396 60.0567 4.03402 60.1437 4.53215C60.5391 5.78081 60.2703 6.91295 60.0236 7.63469C60.0216 7.64072 60.0198 7.64723 60.0178 7.65324L59.9162 7.89738C59.3861 8.87217 58.9767 10.5669 56.3078 11.622C56.3024 11.6237 56.2966 11.6261 56.2912 11.6278C55.1796 11.9565 54.2487 12.0608 53.0676 11.7402C53.0598 11.7379 53.0519 11.7357 53.0441 11.7333C52.1685 11.4929 50.8909 10.7853 50.2004 9.53801C50.194 9.52675 50.1872 9.51515 50.1808 9.50383C49.593 8.3752 48.8803 6.84096 49.3439 4.56633C49.3464 4.55557 49.3492 4.54486 49.3517 4.5341C49.685 3.21972 50.4842 1.0931 53.0402 0.25285C53.0457 0.251178 53.0513 0.249617 53.0568 0.247967Z" fill="#FCB414"/>
<path d="M64.4572 25.7634C65.5522 22.6359 68.9752 20.9878 72.1027 22.0828C75.2301 23.1777 76.8781 26.6008 75.7833 29.7283C70.0649 46.0605 53.5855 53.8655 38.546 55.0183C23.8083 56.1479 6.71643 51.07 0.514788 37.0798C-0.828076 34.0504 0.539149 30.5057 3.5685 29.1628C6.59789 27.82 10.1426 29.1872 11.4855 32.2165C14.6301 39.3104 24.9618 44.0244 37.629 43.0535C49.9943 42.1056 60.9018 35.9173 64.4572 25.7634Z" fill="#FCB414"/>
</svg>

<svg xmlns="http://www.w3.org/2000/svg" width="77" height="56" fill="none"><path fill="#FCB414" d="M16.69 2.602c1.041-.514 2.328-.568 3.258-.388l.096.018c.27.051.688.083 1.284.254.305.095.671.209 1.19.554.484.313 1.327 1.131 1.53 2.347l.019.117c.21 1.521.162 2.906-.241 4.458-.398 1.475-1.352 3.493-3.564 4.528l-.031.015c-1.626.733-3.777.993-5.831-.144l-.01-.005c-.93-.408-2.119-2.112-2.224-3.2l-.002-.01a11 11 0 0 1-.152-2.64c.1-.944.208-2.484 1.79-3.783q.007-.004.01-.008l.063-.048a8 8 0 0 1 .988-.648 5.7 5.7 0 0 1 1.744-1.377zM53.057.248c1.298-.401 2.604-.055 3.446.348 1.105.362 2.488 1.087 3.256 2.712l.035.08c.105.246.263.646.35 1.144.395 1.249.126 2.381-.12 3.103l-.006.018-.102.244c-.53.975-.94 2.67-3.608 3.725l-.017.006c-1.111.329-2.042.433-3.223.112l-.024-.007c-.875-.24-2.153-.948-2.844-2.195l-.02-.034c-.587-1.129-1.3-2.663-.836-4.938l.008-.032c.333-1.314 1.132-3.44 3.688-4.281zM64.457 25.763a6 6 0 0 1 11.326 3.965c-5.718 16.332-22.197 24.137-37.237 25.29C23.808 56.148 6.716 51.07.515 37.08a6 6 0 0 1 10.97-4.863C14.63 39.31 24.963 44.024 37.63 43.054c12.365-.948 23.273-7.137 26.828-17.29"/></svg>
